packages/core/src/svgs/aipad.svg

<svg width="24" height="24" viewBox="0 0 24 24" fill="none" xmlns="http://www.w3.org/2000/svg">
<g clip-path="url(#clip0_31_5773)">
<path d="M0 0H24V24H0V0Z" fill="#020935"/>
<path fill-rule="evenodd" clip-rule="evenodd" d="M12.0858 7.11443C12.1371 7.18183 12.2071 7.23254 12.2872 7.26014L13.1658 9.95157C13.0552 10.0186 12.9674 10.1175 12.9139 10.2352C12.8603 10.353 12.8436 10.4841 12.8658 10.6116L10.9029 10.7787C10.8804 10.7177 10.8442 10.6627 10.7972 10.6177C10.7502 10.5727 10.6936 10.5391 10.6316 10.5193C10.5697 10.4994 10.504 10.494 10.4396 10.5033C10.3753 10.5126 10.3139 10.5364 10.2601 10.573L7.07578 8.53728C7.07301 8.5082 7.06726 8.47948 7.05864 8.45157L12.0858 7.11443ZM12.9644 10.8516L10.9158 11.023C10.9033 11.0808 10.8789 11.1354 10.8442 11.1834C10.8096 11.2313 10.7653 11.2716 10.7144 11.3016V12.0173C10.8041 12.0474 10.8814 12.1065 10.934 12.1852C10.9867 12.2639 11.0118 12.3578 11.0055 12.4523C10.9991 12.5468 10.9616 12.6366 10.8989 12.7075C10.8361 12.7784 10.7516 12.8266 10.6586 12.8444L10.4915 14.023L13.5086 13.4059C13.5263 13.3262 13.5663 13.2532 13.624 13.1955C13.6817 13.1378 13.7547 13.0978 13.8344 13.0801L13.4915 11.143C13.3865 11.1412 13.2836 11.1136 13.1917 11.0628C13.0998 11.012 13.0217 10.9395 12.9644 10.8516ZM13.7315 11.1001L14.0872 13.1016C14.1807 13.1388 14.2581 13.2077 14.3059 13.2962C14.3537 13.3847 14.3688 13.4873 14.3486 13.5859L16.1701 15.4459C16.2252 15.4306 16.2827 15.4266 16.3394 15.4339C16.3961 15.4413 16.4507 15.4599 16.5001 15.4887L17.6786 12.283C17.6395 12.2381 17.6102 12.1856 17.5925 12.1288C17.5748 12.072 17.5691 12.0121 17.5758 11.953L13.9758 10.933C13.9072 11.0059 13.8258 11.0616 13.7315 11.1044V11.1001ZM14.1086 10.7144L17.6744 11.7216C17.6993 11.6921 17.7282 11.6662 17.7601 11.6444L17.4001 9.823C17.3146 9.78517 17.2439 9.72046 17.1986 9.63871L14.1301 10.6159C14.1255 10.6492 14.1184 10.6822 14.1086 10.7144ZM14.1258 10.3587L17.1129 9.403L12.6429 7.23014C12.6134 7.24822 12.5817 7.26262 12.5486 7.273L13.3929 9.86586C13.5549 9.83885 13.7211 9.87487 13.8574 9.96652C13.9937 10.0582 14.0897 10.1985 14.1258 10.3587ZM10.4701 11.3573C10.3877 11.3517 10.3087 11.3224 10.2425 11.273C10.1764 11.2236 10.1259 11.1561 10.0972 11.0787L5.54578 11.2887L5.53293 11.3187L7.8215 13.4401C7.85801 13.4279 7.89693 13.4246 7.93497 13.4306C7.97301 13.4366 8.00906 13.4516 8.04007 13.4744L10.1486 12.4973C10.1292 12.3896 10.1516 12.2786 10.2114 12.187C10.2712 12.0953 10.3637 12.03 10.4701 12.0044V11.3573ZM10.0844 10.8259C10.09 10.8054 10.0972 10.7853 10.1058 10.7659L7.01578 8.79443C6.96625 8.87724 6.89021 8.9409 6.79999 8.97513C6.70977 9.00935 6.61064 9.01212 6.51864 8.983L5.49007 10.8987C5.52436 10.9416 5.54578 10.9844 5.55864 11.0359L10.0844 10.8259ZM12.8186 7.03728C12.8489 6.9719 12.8622 6.89994 12.8573 6.82806C12.8524 6.75618 12.8294 6.6867 12.7905 6.62604C12.7517 6.56538 12.6981 6.5155 12.6349 6.48101C12.5716 6.44652 12.5007 6.42853 12.4286 6.42871C12.3701 6.42861 12.3122 6.44048 12.2585 6.46361C12.2047 6.48674 12.1563 6.52063 12.1161 6.56319C12.076 6.60575 12.045 6.65608 12.025 6.71108C12.005 6.76609 11.9966 6.82459 12.0001 6.883L6.91293 8.23728C6.83031 8.17214 6.72662 8.13966 6.6216 8.14604C6.51658 8.15241 6.41758 8.1972 6.34345 8.27186C6.26932 8.34652 6.22524 8.44584 6.21961 8.5509C6.21398 8.65596 6.2472 8.75942 6.31293 8.84157L5.29721 10.7444C5.23238 10.7194 5.16245 10.7105 5.09343 10.7186C5.0244 10.7266 4.95837 10.7513 4.90101 10.7905C4.84365 10.8297 4.79669 10.8823 4.76417 10.9437C4.73166 11.0051 4.71456 11.0735 4.71436 11.143C4.71448 11.2199 4.73529 11.2953 4.77458 11.3614C4.81388 11.4274 4.87022 11.4817 4.9377 11.5185C5.00519 11.5553 5.08133 11.5733 5.15816 11.5706C5.23498 11.5679 5.30966 11.5445 5.37436 11.503L7.65864 13.6244C7.65104 13.6604 7.6515 13.6976 7.65998 13.7333C7.66847 13.769 7.68478 13.8025 7.70773 13.8312C7.73068 13.8598 7.75971 13.8831 7.79272 13.8992C7.82573 13.9153 7.8619 13.924 7.89864 13.9244C7.9715 13.9287 8.03578 13.8944 8.08293 13.843L10.2858 14.293L11.6229 15.6559C11.5865 15.7249 11.5696 15.8026 11.5741 15.8805C11.5786 15.9584 11.6043 16.0337 11.6484 16.0981C11.6925 16.1625 11.7533 16.2136 11.8244 16.2459C11.8954 16.2783 11.974 16.2906 12.0515 16.2816L12.5229 17.7344C12.4771 17.7922 12.4469 17.8609 12.4354 17.9337C12.4238 18.0066 12.4313 18.0812 12.457 18.1503C12.4828 18.2194 12.5259 18.2807 12.5823 18.3283C12.6387 18.3759 12.7064 18.4081 12.7788 18.4218C12.8513 18.4356 12.9261 18.4304 12.996 18.4068C13.0658 18.3831 13.1284 18.3419 13.1777 18.287C13.2269 18.2321 13.2612 18.1654 13.2771 18.0934C13.2931 18.0213 13.2901 17.9464 13.2686 17.8759L13.8686 17.2587C13.9369 17.3157 14.0212 17.35 14.1098 17.3569C14.1985 17.3638 14.2871 17.343 14.3634 17.2973C14.4397 17.2517 14.4998 17.1834 14.5356 17.102C14.5714 17.0206 14.5809 16.9301 14.5629 16.843L16.0672 16.2259C16.1442 16.2716 16.2335 16.2921 16.3227 16.2845C16.412 16.2769 16.4966 16.2415 16.5646 16.1834C16.6327 16.1252 16.6809 16.0472 16.7024 15.9603C16.7238 15.8734 16.7175 15.7819 16.6844 15.6987L17.8929 12.4159C17.9517 12.4306 18.0129 12.4327 18.0726 12.422C18.1322 12.4113 18.1889 12.3881 18.2389 12.354C18.2889 12.3198 18.3311 12.2754 18.3627 12.2237C18.3943 12.172 18.4146 12.1142 18.4222 12.0541C18.4299 11.994 18.4247 11.9329 18.407 11.875C18.3893 11.8171 18.3595 11.7635 18.3196 11.7179C18.2797 11.6723 18.2306 11.6357 18.1755 11.6105C18.1205 11.5853 18.0607 11.572 18.0001 11.5716H17.9958L17.6529 9.84871C17.722 9.83585 17.7868 9.80621 17.8417 9.76241C17.8966 9.71862 17.9399 9.662 17.9678 9.59754C17.9956 9.53308 18.0073 9.46276 18.0016 9.39276C17.9959 9.32276 17.9731 9.25523 17.9352 9.19611C17.8973 9.13698 17.8455 9.08808 17.7842 9.0537C17.723 9.01931 17.6542 9.00051 17.584 8.99893C17.5138 8.99735 17.4443 9.01306 17.3816 9.04465C17.3189 9.07625 17.2649 9.12278 17.2244 9.18014L12.8186 7.03728ZM12.8572 17.5716C12.9554 17.5712 13.0507 17.6044 13.1272 17.6659L13.7272 17.0487C13.7026 16.9621 13.706 16.8699 13.7367 16.7853C13.7675 16.7007 13.8242 16.6279 13.8986 16.5773V13.9287C13.8651 13.9255 13.832 13.9183 13.8001 13.9073L12.3986 15.6987C12.4322 15.7828 12.4383 15.8754 12.4159 15.9632C12.3936 16.051 12.344 16.1294 12.2744 16.1873L12.7329 17.5887C12.7733 17.5769 12.8152 17.5712 12.8572 17.5716ZM12.2401 15.5016L13.5944 13.7701C13.5671 13.7351 13.5454 13.6961 13.5301 13.6544L10.5944 14.2544L11.7944 15.4801C11.8635 15.4424 11.9416 15.4245 12.0202 15.4283C12.0988 15.4321 12.1749 15.4574 12.2401 15.5016ZM14.1429 16.5001C14.2548 16.4995 14.3624 16.5425 14.4429 16.6201L15.8915 16.0287C15.8598 15.9558 15.849 15.8754 15.8604 15.7967C15.8717 15.718 15.9048 15.644 15.9558 15.583L14.2244 13.813C14.1997 13.8361 14.1723 13.8563 14.1429 13.873V16.5001ZM10.2601 12.7201L8.29293 13.633L10.2429 14.0316L10.4144 12.823C10.356 12.8004 10.3034 12.7653 10.2601 12.7201Z" fill="#E7F2F6"/>
</g>
<defs>
<clipPath id="clip0_31_5773">
<rect width="24" height="24" fill="white"/>
</clipPath>
</defs>
</svg>

<svg xmlns="http://www.w3.org/2000/svg" width="24" height="24" fill="none" viewBox="0 0 24 24"><g clip-path="url(#a)"><path fill="#020935" d="M0 0h24v24H0z"/><path fill="#E7F2F6" fill-rule="evenodd" d="M12.086 7.114a.43.43 0 0 0 .201.146l.879 2.692a.64.64 0 0 0-.3.66l-1.963.167a.428.428 0 0 0-.643-.206L7.076 8.537a.4.4 0 0 0-.017-.085zm.878 3.738-2.048.171a.43.43 0 0 1-.202.279v.715a.428.428 0 0 1-.055.827l-.168 1.179 3.018-.617a.43.43 0 0 1 .325-.326l-.342-1.937a.64.64 0 0 1-.528-.291m.768.248.355 2.002a.43.43 0 0 1 .262.484l1.821 1.86a.43.43 0 0 1 .33.043l1.179-3.206a.43.43 0 0 1-.103-.33l-3.6-1.02a.8.8 0 0 1-.245.171zm.377-.386 3.565 1.008a.4.4 0 0 1 .086-.078l-.36-1.821a.43.43 0 0 1-.201-.184l-3.069.977a1 1 0 0 1-.021.098m.017-.355 2.987-.956-4.47-2.173a.4.4 0 0 1-.094.043l.844 2.593a.643.643 0 0 1 .733.493m-3.656.998a.43.43 0 0 1-.373-.278l-4.551.21-.013.03 2.289 2.121a.24.24 0 0 1 .218.034l2.109-.977a.43.43 0 0 1 .321-.493zm-.386-.531a.4.4 0 0 1 .022-.06l-3.09-1.972a.43.43 0 0 1-.497.189L5.49 10.899a.35.35 0 0 1 .069.137zm2.735-3.789a.428.428 0 0 0-.703-.474.43.43 0 0 0-.116.32L6.913 8.237a.429.429 0 0 0-.6.605l-1.016 1.902a.428.428 0 1 0 .077.759l2.285 2.121a.25.25 0 0 0 .24.3.23.23 0 0 0 .184-.081l2.203.45 1.337 1.363a.429.429 0 0 0 .429.626l.47 1.452a.429.429 0 1 0 .747.142l.6-.617a.428.428 0 0 0 .694-.416l1.504-.617a.43.43 0 0 0 .617-.527l1.209-3.283a.429.429 0 1 0 .107-.844h-.004l-.343-1.723a.428.428 0 1 0-.429-.669zm.038 10.535c.098 0 .194.032.27.094l.6-.617a.43.43 0 0 1 .172-.472V13.93a.4.4 0 0 1-.099-.022L12.4 15.7a.43.43 0 0 1-.125.488l.459 1.402a.4.4 0 0 1 .124-.017m-.617-2.07 1.354-1.732a.4.4 0 0 1-.064-.116l-2.936.6 1.2 1.226a.43.43 0 0 1 .446.022m1.903.998c.112 0 .22.043.3.12l1.449-.591a.43.43 0 0 1 .064-.446l-1.732-1.77a.4.4 0 0 1-.081.06zm-3.883-3.78-1.967.913 1.95.399.171-1.209a.4.4 0 0 1-.154-.103" clip-rule="evenodd"/></g><defs><clipPath id="a"><path fill="#fff" d="M0 0h24v24H0z"/></clipPath></defs></svg>
